icons/toilet.svg

<?xml version="1.0" encoding="UTF-8"?>
<svg width="15" height="15" viewBox="0 0 15 15" xmlns="http://www.w3.org/2000/svg" id="toilet">
  <path d="M3 1.5C3 2.3284 3.6716 3 4.5 3 5.3284 3 6 2.3284 6 1.5 6 .6716 5.3284 0 4.5 0 3.6716 0 3 .6716 3 1.5ZM11.5 0C12.3284 0 13 .6716 13 1.5 13 2.3284 12.3284 3 11.5 3 10.6716 3 10 2.3284 10 1.5 10 .6716 10.6716 0 11.5 0ZM3.29016 4C2.9313 4 2.59996 4.19229 2.42192 4.50386L.565878 7.75193C.428873 7.99169.512172 8.29712.75193 8.43412.991689 8.57113 1.29712 8.48783 1.43412 8.24807L2.84648 5.77645C2.40395 6.99528 1.76202 8.79015 1 11H3V14.33C2.9925 14.3797 2.9925 14.4303 3 14.48 3.0555 14.7561 3.3244 14.935 3.6005 14.8795 3.802 14.839 3.9595 14.6815 4 14.48V11H5V14.5C5.0555 14.7761 5.3244 14.955 5.6005 14.8995 5.802 14.859 5.9595 14.7015 6 14.5 6.0075 14.4503 6.0075 14.3997 6 14.35V11H8L6.10265 5.68742 7.56588 8.24807C7.70288 8.48783 8.00831 8.57113 8.24807 8.43412 8.48783 8.29712 8.57113 7.99169 8.43412 7.75193L6.57808 4.50386C6.40004 4.19229 6.0687 4 5.70984 4H3.29016ZM9 4.5C9 4.2239 9.2239 4 9.5 4H13.5C13.7761 4 14 4.2239 14 4.5V9.5C14 9.7761 13.7761 10 13.5 10 13.2239 10 13 9.7761 13 9.5V14.5C13 14.7761 12.7761 15 12.5 15 12.2239 15 12 14.7761 12 14.5V9.5H11V14.5C11 14.7761 10.7761 15 10.5 15 10.2239 15 10 14.7761 10 14.5V9.5C10 9.7761 9.7761 10 9.5 10 9.2239 10 9 9.7761 9 9.5V4.5Z"/>
</svg>

<?xml version="1.0" encoding="UTF-8"?>
<svg width="15" height="15" viewBox="0 0 15 15" xmlns="http://www.w3.org/2000/svg" id="toilet">
  <path d="M3 1.5a1.5 1.5 0 1 0 3 0 1.5 1.5 0 0 0-3 0ZM11.5 0a1.5 1.5 0 1 1 0 3 1.5 1.5 0 0 1 0-3ZM3.29 4a1 1 0 0 0-.868.504L.566 7.752a.5.5 0 1 0 .868.496l1.412-2.472A345.048 345.048 0 0 0 1 11h2v2.5a.5.5 0 0 0 1 0V11h1v2.5a.5.5 0 0 0 1 0V11h2L6.103 5.687l1.463 2.561a.5.5 0 1 0 .868-.496L6.578 4.504A1 1 0 0 0 5.71 4H3.29ZM9 4.5a.5.5 0 0 1 .5-.5h4a.5.5 0 0 1 .5.5v5a.5.5 0 0 1-1 0v4a.5.5 0 0 1-1 0v-4h-1v4a.5.5 0 0 1-1 0v-4a.5.5 0 0 1-1 0v-5Z"/>
</svg>
